other/auroraservices.svg

<svg xmlns="http://www.w3.org/2000/svg" viewBox="0 0 48 48" version="1.1" id="svg8">
  <defs id="defs2">
    <style id="style1127"/>
    <style id="style1122">
    </style>
    <style id="style883">
    </style>
  </defs>
  <g id="g1139" transform="translate(-.2762574 -.0062664) scale(3.81821)" stroke-width=".2619028" stroke-miterlimit="4" stroke-dasharray="none" fill="none" stroke="#fff" stroke-linecap="butt" stroke-linejoin="miter" stroke-opacity="1">
    <path id="path870" d="M2.3873448 11.004294h7.8388692M2.49175 8.3552603h5.448364M2.3873448 11.004294c-.8351445-.002615-1.486326-.915277-1.2175686-1.7060936.1620233-.5675315.7319704-.9756114 1.3219738-.9429401"/>
    <path id="path1035" d="M5.2383167 2.183948L1.3188821 8.9726079m6.1613625-5.3737255l-2.724182 4.7184217m.4822541-6.1333561c.4198365-.721949 1.5358158-.8295578 2.0863046-.2013985.4104851.424082.4789192 1.1217107.1556233 1.6163329"/>
    <path id="path1043" d="M11.451881 9.0630256C10.145403 6.800139 8.8389246 4.5372524 7.5324464 2.2743658m1.5731015 8.0227592l-2.724182-4.7184217m5.0705151 3.4843223c.415306.7245632-.04949 1.7448334-.868736 1.9074924-.572509.143451-1.2108914-.146097-1.4775971-.673393"/>
  </g>
</svg>

<?xml version="1.0" encoding="UTF-8" standalone="no"?>
<svg
   xmlns:dc="http://purl.org/dc/elements/1.1/"
   xmlns:cc="http://creativecommons.org/ns#"
   xmlns:rdf="http://www.w3.org/1999/02/22-rdf-syntax-ns#"
   xmlns:svg="http://www.w3.org/2000/svg"
   xmlns="http://www.w3.org/2000/svg"
   xmlns:sodipodi="http://sodipodi.sourceforge.net/DTD/sodipodi-0.dtd"
   xmlns:inkscape="http://www.inkscape.org/namespaces/inkscape"
   width="48"
   height="48"
   viewBox="0 0 48 48"
   version="1.1"
   id="svg8"
   sodipodi:docname="auroraservices.svg"
   inkscape:version="1.0.2 (e86c870879, 2021-01-15)"
   inkscape:export-filename="/home/joelchrono12/Sync/auroraservicesnewest.png"
   inkscape:export-xdpi="1000"
   inkscape:export-ydpi="1000">
  <metadata
     id="metadata16">
    <rdf:RDF>
      <cc:Work
         rdf:about="">
        <dc:format>image/svg+xml</dc:format>
        <dc:type
           rdf:resource="http://purl.org/dc/dcmitype/StillImage" />
        <dc:title />
      </cc:Work>
    </rdf:RDF>
  </metadata>
  <sodipodi:namedview
     pagecolor="#000000"
     bordercolor="#666666"
     borderopacity="1"
     objecttolerance="10"
     gridtolerance="10"
     guidetolerance="10"
     inkscape:pageopacity="0"
     inkscape:pageshadow="2"
     inkscape:window-width="1621"
     inkscape:window-height="1041"
     id="namedview14"
     showgrid="false"
     showguides="false"
     inkscape:zoom="16.333334"
     inkscape:cx="15.648171"
     inkscape:cy="23.151594"
     inkscape:window-x="6"
     inkscape:window-y="33"
     inkscape:window-maximized="0"
     inkscape:current-layer="svg8"
     inkscape:document-rotation="0" />
  <defs
     id="defs2">
    <style
       id="style1127" />
    <style
       id="style1122">.a{fill:none;stroke:#fff;stroke-linecap:round;stroke-linejoin:round;}</style>
    <style
       id="style883">.a{fill:none;stroke:#fff;stroke-linecap:round;stroke-linejoin:round;}</style>
  </defs>
  <g
     id="g1139"
     transform="matrix(3.8182104,0,0,3.8182104,-0.27625742,-0.00626643)"
     style="stroke-width:0.2619028;stroke-miterlimit:4;stroke-dasharray:none">
    <path
       id="path870"
       style="fill:none;stroke:#ffffff;stroke-width:0.2619028;stroke-linecap:butt;stroke-linejoin:miter;stroke-opacity:1;stroke-miterlimit:4;stroke-dasharray:none"
       d="m 2.3873448,11.004294 c 2.6129564,0 5.2259128,0 7.8388692,0 M 2.49175,8.3552603 c 1.8161213,0 3.6322427,0 5.448364,0 M 2.3873448,11.004294 C 1.5522003,11.001679 0.90101876,10.089017 1.1697762,9.2982004 1.3317995,8.7306689 1.9017466,8.322589 2.49175,8.3552603" />
    <path
       id="path1035"
       style="fill:none;stroke:#ffffff;stroke-width:0.2619028;stroke-linecap:butt;stroke-linejoin:miter;stroke-opacity:1;stroke-miterlimit:4;stroke-dasharray:none"
       d="M 5.2383167,2.183948 C 3.9318385,4.4468346 2.6253603,6.7097213 1.3188821,8.9726079 M 7.4802446,3.5988824 C 6.5721839,5.1716896 5.6641233,6.7444969 4.7560626,8.3173041 M 5.2383167,2.183948 C 5.6581532,1.461999 6.7741325,1.3543902 7.3246213,1.9825495 7.7351064,2.4066315 7.8035405,3.1042602 7.4802446,3.5988824" />
    <path
       id="path1043"
       style="fill:none;stroke:#ffffff;stroke-width:0.2619028;stroke-linecap:butt;stroke-linejoin:miter;stroke-opacity:1;stroke-miterlimit:4;stroke-dasharray:none"
       d="M 11.451881,9.0630256 C 10.145403,6.800139 8.8389246,4.5372524 7.5324464,2.2743658 M 9.1055479,10.297125 C 8.1974872,8.7243178 7.2894266,7.1515105 6.3813659,5.5787033 m 5.0705151,3.4843223 c 0.415306,0.7245632 -0.04949,1.7448334 -0.868736,1.9074924 -0.572509,0.143451 -1.2108914,-0.146097 -1.4775971,-0.673393" />
  </g>
</svg>
